images/advantages-2.svg

<svg width="43" height="35" viewBox="0 0 43 35" fill="none" xmlns="http://www.w3.org/2000/svg">
<path d="M13.1079 11.5728H-0.18439C-0.592759 11.5728 -0.922852 11.8895 -0.922852 12.2813V16.5323C-0.922852 16.9241 -0.592759 17.2408 -0.18439 17.2408H0.554072V33.5363C0.554072 33.9281 0.884164 34.2448 1.29253 34.2448H11.631C12.0394 34.2448 12.3695 33.9281 12.3695 33.5363V30.7023V20.0748V17.2408H13.1079C13.5163 17.2408 13.8464 16.9241 13.8464 16.5323V12.2813C13.8464 11.8895 13.5163 11.5728 13.1079 11.5728ZM4.98484 25.0343V23.6173H9.41561V22.2003H4.98484V20.7833H10.8925V29.9938H4.98484V26.4513H6.46176V25.0343H4.98484ZM10.8925 19.3663H4.24638C3.83801 19.3663 3.50792 19.683 3.50792 20.0748V30.7023C3.50792 31.0941 3.83801 31.4108 4.24638 31.4108H10.8925V32.8278H2.03099V17.2408H10.8925V19.3663ZM12.3695 15.8238H11.631H1.29253H0.554072V12.9898H12.3695V15.8238Z" fill="#2B7FFF"/>
<path d="M22.8926 11.7056V6.52578C22.8926 6.12239 22.5625 5.79633 22.1541 5.79633H21.4157V2.14908H22.8926V0.690186H14.7695V2.14908H19.9388V5.79633H19.2003C18.7919 5.79633 18.4618 6.12239 18.4618 6.52578V11.7056C16.7789 12.0448 15.508 13.5175 15.508 15.2792V16.7381V30.5976V33.5154C15.508 33.9188 15.8381 34.2448 16.2465 34.2448H25.108C25.5164 34.2448 25.8465 33.9188 25.8465 33.5154V30.5976V16.7381V15.2792C25.8465 13.5183 24.5756 12.0448 22.8926 11.7056ZM19.9388 7.25523H21.4157V11.6319H19.9388V7.25523ZM19.2003 13.0908H22.1541C23.3756 13.0908 24.3695 14.0727 24.3695 15.2792V16.0086H16.9849V15.2792C16.9849 14.0727 17.9789 13.0908 19.2003 13.0908ZM24.3695 29.8682H16.9849V28.4093H19.9388V26.9504H16.9849V17.4675H24.3695V29.8682ZM16.9849 32.7859V31.327H24.3695V32.7859H16.9849Z" fill="#2B7FFF"/>
<path d="M41.7696 10.666H29.308C28.9252 10.666 28.6157 10.9854 28.6157 11.3805V33.5305C28.6157 33.9256 28.9252 34.245 29.308 34.245H41.7696C42.1524 34.245 42.4619 33.9256 42.4619 33.5305V11.3805C42.4619 10.9854 42.1524 10.666 41.7696 10.666ZM41.0773 32.8159H30.0003V12.095H41.0773V32.8159Z" fill="#2B7FFF"/>
<path d="M10.1543 25.176H8.30811V26.0829H10.1543V25.176Z" fill="#2B7FFF"/>
<path d="M23.0771 26.9897H21.231V28.8035H23.0771V26.9897Z" fill="#2B7FFF"/>
<path d="M20.7693 25.1761C22.5511 25.1761 24.0001 23.7525 24.0001 22.002C24.0001 20.2515 22.5511 18.8279 20.7693 18.8279C18.9876 18.8279 17.5386 20.2515 17.5386 22.002C17.5386 23.7525 18.9876 25.1761 20.7693 25.1761ZM20.7693 20.4149C21.6602 20.4149 22.3847 21.1267 22.3847 22.002C22.3847 22.8772 21.6602 23.589 20.7693 23.589C19.8785 23.589 19.154 22.8772 19.154 22.002C19.154 21.1267 19.8785 20.4149 20.7693 20.4149Z" fill="#2B7FFF"/>
<path d="M33.8078 17.9209H37.2694C38.6055 17.9209 39.6925 16.9039 39.6925 15.6537C39.6925 14.4035 38.6055 13.3865 37.2694 13.3865H33.8078C32.4717 13.3865 31.3848 14.4035 31.3848 15.6537C31.3848 16.9039 32.4717 17.9209 33.8078 17.9209ZM38.3078 15.6537C38.3078 16.1894 37.8419 16.6253 37.2694 16.6253H36.2309V14.682H37.2694C37.8419 14.682 38.3078 15.118 38.3078 15.6537ZM33.8078 14.682H34.8463V16.6253H33.8078C33.2353 16.6253 32.7694 16.1894 32.7694 15.6537C32.7694 15.118 33.2353 14.682 33.8078 14.682Z" fill="#2B7FFF"/>
<path d="M33.8078 25.1759H37.2694C38.6055 25.1759 39.6925 23.9555 39.6925 22.4553C39.6925 20.955 38.6055 19.7346 37.2694 19.7346H33.8078C32.4717 19.7346 31.3848 20.955 31.3848 22.4553C31.3848 23.9555 32.4717 25.1759 33.8078 25.1759ZM38.3078 22.4553C38.3078 23.0981 37.8419 23.6213 37.2694 23.6213H36.2309V21.2893H37.2694C37.8419 21.2893 38.3078 21.8124 38.3078 22.4553ZM33.8078 21.2893H34.8463V23.6213H33.8078C33.2353 23.6213 32.7694 23.0981 32.7694 22.4553C32.7694 21.8124 33.2353 21.2893 33.8078 21.2893Z" fill="#2B7FFF"/>
<path d="M33.8078 31.5243H37.2694C38.6055 31.5243 39.6925 30.3039 39.6925 28.8037C39.6925 27.3034 38.6055 26.083 37.2694 26.083H33.8078C32.4717 26.083 31.3848 27.3034 31.3848 28.8037C31.3848 30.3039 32.4717 31.5243 33.8078 31.5243ZM38.3078 28.8037C38.3078 29.4465 37.8419 29.9696 37.2694 29.9696H36.2309V27.6377H37.2694C37.8419 27.6377 38.3078 28.1608 38.3078 28.8037ZM33.8078 27.6377H34.8463V29.9696H33.8078C33.2353 29.9696 32.7694 29.4465 32.7694 28.8037C32.7694 28.1608 33.2353 27.6377 33.8078 27.6377Z" fill="#2B7FFF"/>
</svg>

<svg xmlns="http://www.w3.org/2000/svg" fill="none" viewBox="0 0 43 35">
  <path fill="#2B7FFF" d="M13.108 11.573H-.184c-.409 0-.739.316-.739.708v4.251c0 .392.33.709.739.709h.738v16.295c0 .392.33.709.739.709H11.63c.408 0 .739-.317.739-.709V17.241h.738c.408 0 .738-.317.738-.709v-4.25c0-.393-.33-.71-.738-.71ZM4.985 25.034v-1.417h4.43V22.2h-4.43v-1.417h5.907v9.21H4.986v-3.542h1.477v-1.417H4.985Zm5.907-5.668H4.247c-.408 0-.738.317-.738.709v10.627c0 .392.33.709.738.709h6.646v1.417H2.031V17.24h8.861v2.125Zm1.478-3.542H.553V12.99H12.37v2.834Zm10.523-4.118v-5.18c0-.404-.33-.73-.739-.73h-.738V2.15h1.477V.69H14.77v1.46h5.169v3.646H19.2a.733.733 0 0 0-.738.73v5.18c-1.683.339-2.954 1.812-2.954 3.573v18.236c0 .404.33.73.739.73h8.861a.733.733 0 0 0 .738-.73V15.28c0-1.76-1.27-3.234-2.953-3.573Zm-2.954-4.45h1.477v4.376h-1.477V7.255ZM19.2 13.09h2.954c1.222 0 2.215.982 2.215 2.188v.73h-7.384v-.73c0-1.206.994-2.188 2.215-2.188Zm5.17 16.777h-7.385V28.41h2.954v-1.46h-2.954v-9.482h7.384v12.4Zm-7.385 2.918v-1.459h7.384v1.459h-7.384ZM41.77 10.666H29.308a.703.703 0 0 0-.692.714v22.15c0 .396.31.715.692.715H41.77c.382 0 .692-.32.692-.714V11.38a.703.703 0 0 0-.692-.715Zm-.693 22.15H30V12.095h11.077v20.72Z"/>
  <path fill="#2B7FFF" d="M10.154 25.176H8.308v.907h1.846v-.907Zm12.923 1.814h-1.846v1.814h1.846V26.99Zm-2.307-1.814c1.781 0 3.23-1.423 3.23-3.174 0-1.75-1.449-3.174-3.23-3.174-1.782 0-3.231 1.424-3.231 3.174s1.449 3.174 3.23 3.174Zm0-4.761c.89 0 1.615.712 1.615 1.587s-.725 1.587-1.616 1.587c-.89 0-1.615-.712-1.615-1.587s.724-1.587 1.615-1.587Zm13.038-2.495h3.461c1.337 0 2.424-1.016 2.424-2.266s-1.087-2.268-2.424-2.268h-3.461c-1.336 0-2.423 1.018-2.423 2.268 0 1.25 1.087 2.267 2.423 2.267Zm4.5-2.266c0 .535-.466.971-1.039.971h-1.038v-1.943h1.038c.573 0 1.039.436 1.039.972Zm-4.5-.972h1.038v1.943h-1.038c-.573 0-1.039-.436-1.039-.971 0-.536.466-.972 1.039-.972Zm0 10.494h3.461c1.337 0 2.424-1.22 2.424-2.72 0-1.501-1.087-2.721-2.424-2.721h-3.461c-1.336 0-2.423 1.22-2.423 2.72 0 1.5 1.087 2.72 2.423 2.72Zm4.5-2.72c0 .642-.466 1.165-1.039 1.165h-1.038V21.29h1.038c.573 0 1.039.523 1.039 1.166Zm-4.5-1.167h1.038v2.332h-1.038c-.573 0-1.039-.523-1.039-1.166 0-.643.466-1.166 1.039-1.166Zm0 10.235h3.461c1.337 0 2.424-1.22 2.424-2.72 0-1.5-1.087-2.721-2.424-2.721h-3.461c-1.336 0-2.423 1.22-2.423 2.72 0 1.5 1.087 2.721 2.423 2.721Zm4.5-2.72c0 .643-.466 1.166-1.039 1.166h-1.038v-2.332h1.038c.573 0 1.039.523 1.039 1.166Zm-4.5-1.166h1.038v2.332h-1.038c-.573 0-1.039-.523-1.039-1.166 0-.643.466-1.166 1.039-1.166Z"/>
</svg>
